X:18
T:Rhuddlan
M:C
L:1/8
Q:140
C:Trad.
R:Hymn
K:G
G3 G G2 G2 | B2 G2 A2 D2 | F3 F G2 G2 | F2 E2 D4 :||: B2 d2 B>A G2 |
A2 c2 F>E D2 | G3 G B2 d2 | B2 A2 G4 :||
